assets/icons/commentactlight.svg

<svg width="20" height="20" viewBox="0 0 20 20" fill="none" xmlns="http://www.w3.org/2000/svg">
<path d="M7.08268 15.8327H6.66602C3.33268 15.8327 1.66602 14.9993 1.66602 10.8327V6.66602C1.66602 3.33268 3.33268 1.66602 6.66602 1.66602H13.3327C16.666 1.66602 18.3327 3.33268 18.3327 6.66602V10.8327C18.3327 14.166 16.666 15.8327 13.3327 15.8327H12.916C12.6577 15.8327 12.4077 15.9577 12.2493 16.166L10.9993 17.8327C10.4493 18.566 9.54935 18.566 8.99935 17.8327L7.74935 16.166C7.61602 15.9827 7.30768 15.8327 7.08268 15.8327Z" stroke="#4352DB" stroke-width="1.25" stroke-miterlimit="10" stroke-linecap="round" stroke-linejoin="round"/>
<path d="M13.3301 9.16667H13.3375" stroke="#4352DB" stroke-width="1.25" stroke-linecap="round" stroke-linejoin="round"/>
<path d="M9.99607 9.16667H10.0036" stroke="#4352DB" stroke-width="1.25" stroke-linecap="round" stroke-linejoin="round"/>
<path d="M6.66209 9.16667H6.66957" stroke="#4352DB" stroke-width="1.25" stroke-linecap="round" stroke-linejoin="round"/>
</svg>

<svg width="20" height="20" viewBox="0 0 20 20" fill="none" xmlns="http://www.w3.org/2000/svg"><path d="M7.08 15.83h-.41c-3.34 0-5-.83-5-5V6.67q0-5 5-5h6.66q5 0 5 5v4.16q0 5-5 5h-.41a1 1 0 0 0-.67.34L11 17.83c-.55.74-1.45.74-2 0l-1.25-1.66a1 1 0 0 0-.67-.34" stroke="#4352DB" stroke-width="1.25" stroke-miterlimit="10" stroke-linecap="round" stroke-linejoin="round"/><path d="M6.66 9.17" stroke="#4352DB" stroke-width="1.25" stroke-linecap="round" stroke-linejoin="round"/></svg>
